!!!OTL: Richmudis von Adocht Es weidet ein Schaefer ihn Grinen hols,
!!!ARE: Europa, Osteuropa, UdSSR, Wolga - Kolonie, Samara
!!!YOR: 5, S. 241
!!    ????
!!!SCT: Q1112E
!!!YEM: Copyright 1995, estate of Helmut Schaffrath.
**kern
*ICvox
*Ivox
*M3/8
*k[f#]
*G:
{8d
=1
8.g
16f#
8g
=2
8.a
16g
8a
=3
8cc
8b
16cc
16a
=4
4.a}
=5
{4b
8cc
=6
8cc
8b
8b
=7
16cc
16b
8a
8g
=8
8.a
16b
8a
=9
4g}
{8d
=10
8g
8f#
8g
=11
8.a
16g
8a
=12
8cc
8b
16cc
16a
=13
4.a}
=14
{8b
16cc
16b
16cc
16b
=15
8.b
16cc
8b
=16
16cc
16b
8a
8g
=17
4b
8a
=18
4g}
==
!!!AGN: ???
!! Melodievergleich zu Q0112A, anderes Lied. Verzierungen (Vorschlaege)
!!    Melodie auf zwei Textstrophen verteilt.
!!!ONB: ESAC (Essen Associative Code) Database: BALLADE
!!!AMT: simple triple
!!!AIN: vox
!!!EED: Helmut Schaffrath
!!!EEV: 1.0
*-
